icons/tokens/0xdCD90C7f6324cfa40d7169ef80b12031770B4325/logo.svg

<svg width="32" height="32" viewBox="0 0 32 32" fill="none" xmlns="http://www.w3.org/2000/svg">
<path fill-rule="evenodd" clip-rule="evenodd" d="M32 15.9999C32 13.9059 31.5834 11.8118 30.7821 9.87706C29.9805 7.94234 28.7942 6.16698 27.3136 4.68634C25.833 3.20538 24.0576 2.01946 22.1229 1.21786C20.1882 0.416579 18.0941 -6.10352e-05 16 -6.10352e-05C13.9059 -6.10352e-05 11.8115 0.416579 9.8768 1.21786C7.94208 2.01946 6.16704 3.20538 4.68608 4.68634C3.20544 6.16698 2.0192 7.94234 1.21792 9.87706C0.41632 11.8118 0 13.9059 0 15.9999C0 18.094 0.41632 20.1881 1.21792 22.1228C2.0192 24.0575 3.20544 25.8329 4.68608 27.3139C6.16704 28.7945 7.94208 29.9807 9.8768 30.782C11.8115 31.5833 13.9059 31.9999 16 31.9999C18.0941 31.9999 20.1882 31.5833 22.1229 30.782C24.0576 29.9807 25.833 28.7945 27.3136 27.3139C28.7942 25.8329 29.9805 24.0575 30.7821 22.1228C31.5834 20.1881 32 18.094 32 15.9999Z" fill="white"/>
<path fill-rule="evenodd" clip-rule="evenodd" d="M11.8547 3.38361C13.3453 2.89369 14.9382 2.66969 16.5162 2.73017C18.0944 2.79065 19.6579 3.13593 21.113 3.74393C22.5683 4.35193 23.9152 5.22297 25.0675 6.29753C26.5917 7.71929 27.775 9.49753 28.4848 11.4867C29.1949 13.4761 29.4314 15.6764 29.1574 17.7711C28.8838 19.8659 28.0998 21.8553 26.9139 23.566C25.728 25.2767 24.1398 26.7084 22.2746 27.7004C20.4093 28.6921 18.2662 29.2438 16.1539 29.2758C14.0416 29.3078 11.9597 28.8204 10.095 27.895C8.23073 26.9695 6.58337 25.6063 5.33249 23.9036C4.08161 22.2009 3.22721 20.1587 2.88801 18.0748C2.54881 15.9907 2.72481 13.8646 3.37473 11.8812C3.86593 10.3817 4.62817 8.96409 5.6048 7.73561H4.12033V5.28185H9.93696V10.7135H7.48321V9.22937C6.68321 10.2355 6.05857 11.3967 5.65633 12.6255C5.12417 14.2511 4.98081 15.9951 5.25633 17.6969C5.59873 19.8137 6.58881 21.8649 8.06657 23.4457C9.83425 25.3363 12.2995 26.5542 14.8659 26.8207C17.432 27.0873 20.0992 26.4028 22.2173 24.9286C24.3354 23.4543 25.905 21.1903 26.5421 18.6899C27.1792 16.1894 26.8838 13.4524 25.735 11.142C24.5862 8.83161 22.5837 6.94841 20.1891 5.95897C17.7946 4.96921 15.0077 4.87385 12.6038 5.66361L11.8547 3.38361Z" fill="url(#paint0_linear)"/>
<path d="M11.8973 15.2841C11.8599 15.3414 11.8226 15.3986 11.7854 15.4558C10.5237 17.3922 10.8054 19.9275 12.463 21.5519C13.4382 22.5076 14.7169 22.9854 15.9953 22.9857L11.8973 15.2841Z" fill="black"/>
<path opacity="0.5" d="M16 12.3964L12.4677 14.4161L16 16.4335V12.3964Z" fill="black"/>
<path d="M16 9L12.4677 14.4164L16 12.3908V9Z" fill="black"/>
<path opacity="0.5" d="M16 17.6247L11.8975 15.2841L16 22.9857V17.6247Z" fill="black"/>
<path opacity="0.6" d="M20.1027 15.2841C20.1401 15.3414 20.1774 15.3986 20.2146 15.4558C21.4763 17.3922 21.1946 19.9275 19.537 21.5519C18.5618 22.5076 17.2831 22.9854 16.0047 22.9857L20.1027 15.2841Z" fill="black"/>
<path opacity="0.15" d="M16 12.3964L19.5323 14.4161L16 16.4335V12.3964Z" fill="black"/>
<path opacity="0.6" d="M16 9L19.5323 14.4164L16 12.3908V9Z" fill="black"/>
<path opacity="0.15" d="M16 17.6247L20.1025 15.2841L16 22.9857V17.6247Z" fill="black"/>
<defs>
<linearGradient id="paint0_linear" x1="2.04343" y1="13.297" x2="15.2222" y2="29.5764" gradientUnits="userSpaceOnUse">
<stop stop-color="#004CFF"/>
<stop offset="0.252131" stop-color="#00E0FB"/>
<stop offset="0.505709" stop-color="#87FF70"/>
<stop offset="0.755054" stop-color="#F8F500"/>
<stop offset="1" stop-color="#FF1A00"/>
</linearGradient>
</defs>
</svg>

<svg width="32" height="32" fill="none" xmlns="http://www.w3.org/2000/svg"><path fill-rule="evenodd" clip-rule="evenodd" d="M32 16c0-2.094-.417-4.188-1.218-6.123a16.058 16.058 0 00-3.468-5.19 16.051 16.051 0 00-5.191-3.47A16.054 16.054 0 0016 0c-2.094 0-4.188.417-6.123 1.218a16.055 16.055 0 00-5.19 3.468 16.05 16.05 0 00-3.47 5.191A16.049 16.049 0 000 16c0 2.094.416 4.188 1.218 6.123a16.056 16.056 0 003.468 5.19 16.055 16.055 0 005.19 3.469A16.056 16.056 0 0016 32c2.094 0 4.188-.417 6.123-1.218a16.051 16.051 0 005.19-3.468 16.063 16.063 0 003.47-5.191A16.054 16.054 0 0032 16z" fill="#fff"/><path fill-rule="evenodd" clip-rule="evenodd" d="M11.855 3.384a13.267 13.267 0 0113.213 2.914 13.155 13.155 0 013.417 5.189c.71 1.99.946 4.19.672 6.284a13.194 13.194 0 01-2.243 5.795 13.207 13.207 0 01-4.64 4.134 13.622 13.622 0 01-6.12 1.576 13.207 13.207 0 01-6.059-1.381 13.19 13.19 0 01-4.763-3.991 13.662 13.662 0 01-2.444-5.83 13.13 13.13 0 01.487-6.193 13.392 13.392 0 012.23-4.145H4.12V5.282h5.817v5.431H7.483V9.23a10.961 10.961 0 00-1.827 3.397 10.787 10.787 0 00-.4 5.07 11.107 11.107 0 002.81 5.75 10.952 10.952 0 006.8 3.375 11.023 11.023 0 007.351-1.892 10.999 10.999 0 004.325-6.24c.637-2.5.342-5.237-.807-7.547a10.919 10.919 0 00-5.546-5.183c-2.394-.99-5.181-1.085-7.585-.295l-.75-2.28z" fill="url(#paint0_linear)"/><path d="M11.897 15.284l-.112.172a4.822 4.822 0 00.678 6.096 5.034 5.034 0 003.532 1.434l-4.098-7.702z" fill="#000"/><path opacity=".5" d="M16 12.396l-3.532 2.02L16 16.433v-4.037z" fill="#000"/><path d="M16 9l-3.532 5.416L16 12.391V9z" fill="#000"/><path opacity=".5" d="M16 17.625l-4.102-2.34 4.102 7.7v-5.36z" fill="#000"/><path opacity=".6" d="M20.103 15.284l.112.172a4.822 4.822 0 01-.678 6.096 5.034 5.034 0 01-3.532 1.434l4.098-7.702z" fill="#000"/><path opacity=".15" d="M16 12.396l3.532 2.02L16 16.433v-4.037z" fill="#000"/><path opacity=".6" d="M16 9l3.532 5.416L16 12.391V9z" fill="#000"/><path opacity=".15" d="M16 17.625l4.102-2.34-4.102 7.7v-5.36z" fill="#000"/><defs><linearGradient id="paint0_linear" x1="2.043" y1="13.297" x2="15.222" y2="29.576" gradientUnits="userSpaceOnUse"><stop stop-color="#004CFF"/><stop offset=".252" stop-color="#00E0FB"/><stop offset=".506" stop-color="#87FF70"/><stop offset=".755" stop-color="#F8F500"/><stop offset="1" stop-color="#FF1A00"/></linearGradient></defs></svg>
